App/Icons/queue_repeat_single.svg

<?xml version="1.0" encoding="UTF-8" standalone="no"?>
<svg
   version="1.1"
   id="Capa_1"
   x="0px"
   y="0px"
   viewBox="0 0 63.999998 63.999998"
   xml:space="preserve"
   sodipodi:docname="queue_repeat_single.svg"
   inkscape:version="1.1 (c4e8f9ed74, 2021-05-24)"
   width="64"
   height="64"
   xmlns:inkscape="http://www.inkscape.org/namespaces/inkscape"
   xmlns:sodipodi="http://sodipodi.sourceforge.net/DTD/sodipodi-0.dtd"
   xmlns="http://www.w3.org/2000/svg"
   xmlns:svg="http://www.w3.org/2000/svg"
   xmlns:rdf="http://www.w3.org/1999/02/22-rdf-syntax-ns#"
   xmlns:cc="http://creativecommons.org/ns#"
   xmlns:dc="http://purl.org/dc/elements/1.1/"><metadata
   id="metadata56"><rdf:RDF><cc:Work
       rdf:about=""><dc:format>image/svg+xml</dc:format><dc:type
         rdf:resource="http://purl.org/dc/dcmitype/StillImage" /></cc:Work></rdf:RDF></metadata><defs
   id="defs54" /><sodipodi:namedview
   pagecolor="#ffffff"
   bordercolor="#666666"
   borderopacity="1"
   objecttolerance="10"
   gridtolerance="10"
   guidetolerance="10"
   inkscape:pageopacity="0"
   inkscape:pageshadow="2"
   inkscape:window-width="1920"
   inkscape:window-height="1056"
   id="namedview52"
   showgrid="false"
   inkscape:pagecheckerboard="true"
   inkscape:zoom="1.8335089"
   inkscape:cx="187.07299"
   inkscape:cy="190.07271"
   inkscape:window-x="0"
   inkscape:window-y="0"
   inkscape:window-maximized="1"
   inkscape:current-layer="Group_Arrows"
   inkscape:document-rotation="0" />
<g
   id="g19"
   style="fill:#ffffff">
	<g
   id="Group_Arrows"
   style="fill:#ffffff">
		<path
   id="path2"
   style="fill:#0288d1;fill-opacity:1;stroke-width:0.170231"
   d="m 42.336726,3.9999999 c -0.527334,0 -1.054514,0.201671 -1.456941,0.605119 -0.804853,0.806896 -0.804853,2.11729 0,2.924186 l 6.629043,6.7091701 h -35.98827 c -1.130506,0 -2.0477625,0.917427 -2.0477625,2.047762 v 18.431517 c 0,1.130335 0.9174265,2.047762 2.0477625,2.047762 1.130505,0 2.048094,-0.917427 2.048094,-2.047762 V 18.333999 h 33.977082 l -6.665949,6.746075 c -0.804853,0.808938 -0.804853,2.117575 0,2.926514 0.804853,0.806896 2.109362,0.806896 2.914212,0 L 53.910785,17.76911 c 0.80485,-0.808938 0.80485,-2.117575 0,-2.926514 L 43.793997,4.6051189 C 43.39157,4.2016709 42.86406,3.9999999 42.336726,3.9999999 Z M 30.827501,21.997294 26.04407,22.962159 v 2.46536 l 4.810363,-0.964533 v 15.261626 h -4.421689 v 2.27784 h 11.523188 v -2.27784 H 33.534243 V 21.997294 Z m 21.651614,5.220977 c -1.13051,0 -2.04776,0.917759 -2.04776,2.048094 V 45.712959 H 16.380459 l 6.725462,-6.819553 c 0.804853,-0.808939 0.804853,-2.121566 0,-2.930505 -0.804853,-0.808939 -2.109359,-0.808939 -2.914212,0 L 10.12812,46.169791 c -0.8581365,0.810982 -0.8642645,2.20763 0,3.018611 l 10.065583,10.204894 c 0.804853,0.808939 2.109359,0.808939 2.914213,0 0.804852,-0.808939 0.804852,-2.121564 0,-2.930503 l -6.559555,-6.651651 h 35.931083 c 1.13051,0 2.04776,-0.917427 2.04776,-2.047762 V 29.26836 c 0,-1.132548 -0.91759,-2.050089 -2.048089,-2.050089 z" />
		
	</g>
	<g
   id="g7"
   style="fill:#ffffff">
	</g>
	<g
   id="g9"
   style="fill:#ffffff">
	</g>
	<g
   id="g11"
   style="fill:#ffffff">
	</g>
	<g
   id="g13"
   style="fill:#ffffff">
	</g>
	<g
   id="g15"
   style="fill:#ffffff">
	</g>
	<g
   id="g17"
   style="fill:#ffffff">
	</g>
</g>
<g
   id="g21">
</g>
<g
   id="g23">
</g>
<g
   id="g25">
</g>
<g
   id="g27">
</g>
<g
   id="g29">
</g>
<g
   id="g31">
</g>
<g
   id="g33">
</g>
<g
   id="g35">
</g>
<g
   id="g37">
</g>
<g
   id="g39">
</g>
<g
   id="g41">
</g>
<g
   id="g43">
</g>
<g
   id="g45">
</g>
<g
   id="g47">
</g>
<g
   id="g49">
</g>
</svg>

<?xml version="1.0" encoding="UTF-8"?>
<svg id="Capa_1" width="64" height="64" version="1.1" viewBox="0 0 64 64" xml:space="preserve" xmlns="http://www.w3.org/2000/svg" xmlns:cc="http://creativecommons.org/ns#" xmlns:dc="http://purl.org/dc/elements/1.1/" xmlns:rdf="http://www.w3.org/1999/02/22-rdf-syntax-ns#"><metadata id="metadata56"><rdf:RDF><cc:Work rdf:about=""><dc:format>image/svg+xml</dc:format><dc:type rdf:resource="http://purl.org/dc/dcmitype/StillImage"/></cc:Work></rdf:RDF></metadata>
<path id="path2" d="m42.338 4c-0.52733 0-1.0546 0.20202-1.457 0.60547-0.80485 0.8069-0.80485 2.1169 0 2.9238l6.6289 6.709h-35.988c-1.1305 0-2.0488 0.91846-2.0488 2.0488v18.432c0 1.1303 0.91846 2.0469 2.0488 2.0469 1.1305 0 2.0469-0.9165 2.0469-2.0469v-16.385h33.979l-6.666 6.7461c-0.80485 0.80894-0.80485 2.1188 0 2.9277 0.80485 0.8069 2.1093 0.8069 2.9141 0l10.117-10.238c0.80485-0.80894 0.80485-2.1169 0-2.9258l-10.117-10.238c-0.40243-0.40345-0.92967-0.60352-1.457-0.60352v-0.0019531zm-11.51 17.996-4.7832 0.96484v2.4668l4.8105-0.96484v15.262h-4.4219v2.2773h11.523v-2.2773h-4.4219v-17.727l-2.707-0.001953zm21.652 5.2227c-1.1305 0-2.0488 0.91654-2.0488 2.0469v16.447h-34.051l6.7266-6.8203c0.80485-0.80894 0.80485-2.1208 0-2.9297s-2.1093-0.80894-2.9141 0l-10.064 10.207c-0.85814 0.81098-0.86426 2.2085 0 3.0195l10.066 10.205c0.80485 0.80894 2.1093 0.80894 2.9141 0 0.80485-0.80894 0.80485-2.1227 0-2.9316l-6.5605-6.6523h35.932c1.1305 0 2.0469-0.9165 2.0469-2.0469v-18.494c0-1.1325-0.91636-2.0508-2.0469-2.0508z" fill="#007fff"/>















</svg>
